!!!id: EG038
!!!page: 294
!!!COM: Anonymous
!!!LYR: Anonymous
!!!PTL@@FR: Chansons Populaires du Canada
!!!OTL@@FR: Entre Paris et Saint-Denis
!!!PUB: G. E. Desbarats
!!!YEM:
!!!PDT: 1865
!!!SMA:
!!!OMD:
!!!AGN-Laforte:
!!!AGN-type:
!!!AGN-rime:
**kern	**text	**text	**text	**text	**text	**text	**text	**text	**text	**text	**text
*clefG2	*	*	*	*	*	*	*	*	*	*	*
*k[b-]	*	*	*	*	*	*	*	*	*	*	*
*M3/8	*	*	*	*	*	*	*	*	*	*	*
*F:	*	*	*	*	*	*	*	*	*	*	*
*	*v:1	*v:2	*v:3	*v:4	*v:5	*v:6	*v:7	*v:8	*v:9	*v:10	*v:11
*	*pline:1	*pline:3r	*pline:5r	*pline:7r	*pline:9r	*pline:11r	*pline:13r	*pline:15r	*pline:17r	*pline:19r	*pline:21r
8c	En-	Tou-	Il	Ell[e]	Beau	Les	Que	Est-	Ell[e]	Ell[e]	Ell[e]
=1	=1	=1	=1	=1	=1	=1	=1	=1	=1	=1	=1
4f	-tre	-tes	n'y	voit	mes-	nou-	vous	-el-	n'est	fait	fait
8a	Pa-	les	a	ve-	-sa-	-vell[e]s	fas-	-le	pas	nei-	re-
=2	=2	=2	=2	=2	=2	=2	=2	=2	=2	=2	=2
4cc	-ris	da-	que	-nir	-ger,	que	-siez	plus	plus	-ger,	-lui-
8dd	et	-mes	la	son	beau	j'ai	choix	bel-	bel-	ell[e]	-re
=3	=3	=3	=3	=3	=3	=3	=3	=3	=3	=3	=3
4cc	Saint-	de	fill[e]	mes-	mes-	ap-	d'un	-le	-le	fait	le
8b-	-De-	la	du	-sa-	-sa-	-por-	a-	que	que	grê-	so-
=4	=4	=4	=4	=4	=4	=4	=4	=4	=4	=4	=4
4a	-nis	vill[e]	roi	-ger,	-ger,	-tées:	-mant,	moi?	toi,	-ler,	-leil
*	*pline:2	*pline:4r	*pline:6r	*pline:8r	*pline:10r	*pline:12r	*pline:14r	*pline:16r	*pline:18r	*pline:20r	*pline:22r
8g	Il	Sont	D'un	Son	Quell[e]s	Que	Pour	Est-	Mais	Ell[e]	À
=5	=5	=5	=5	=5	=5	=5	=5	=5	=5	=5	=5
4a	s'é-	a-	cô-	mes-	nou-	votr[e]	lui	-el-	ell[e]	fait	mi-
8b-	-lèv[e]	-len-	-te	-sa-	-vell[e]s	a-	a	-le	est	le	-nuit,
=6	=6	=6	=6	=6	=6	=6	=6	=6	=6	=6	=6
4cc	u-	-tour	qui	-ger	ya	-mant	un[e]	plus	plus	vent	dans
8dd	-ne	qui	re-	de	à	vous	a-	char-	sa-	qui	sa
=7	=7	=7	=7	=7	=7	=7	=7	=7	=7	=7	=7
(4cc	dan-	dan-	-gar-	Nan-	Nan-	man-	-man-	-man-	-van-	ven-	cham-
8b)	.	.	.	.	.	.	.	.	.	.	.
=8	=8	=8	=8	=8	=8	=8	=8	=8	=8	=8	=8
4cc	-se;	-sent...	-de.	-tes.	-tes?	-de	-te.	-te?	-te:	-te;	-bre;
=||	=||	=||	=||	=||	=||	=||	=||	=||	=||	=||	=||
*	*pline:3	*pline:5	*pline:7	*pline:9	*pline:11	*pline:13	*pline:15	*pline:17	*pline:19	*pline:21	*pline:23
8cc	Tou-	Il	Ell[e]	—Beau	—Les	Que	—Est	—Ell[e]	Ell[e]	Ell[e]	Ell[e]
=9	=9	=9	=9	=9	=9	=9	=9	=9	=9	=9	=9
4cc	-tes	n'y	voit	mes-	nou-	vous	el-	n'est	fait	fait	fait
8g	les	a	ve-	-sa-	-vell[e]s	fas-	-le	pas	nei-	re-	pous-
=10	=10	=10	=10	=10	=10	=10	=10	=10	=10	=10	=10
4g	da-	que	-nir	-ger,	que	-siez	plus	plus	-ger,	-lui-	-ser
8b-	-mes	la	son	beau	j'ai	choix	bel-	bel-	ell[e]	-re	le
=11	=11	=11	=11	=11	=11	=11	=11	=11	=11	=11	=11
4a	de	fill[e]	mes-	mes-	ap-	d'un	-le	-le	fait	le	ro-
8cc	la	du	-sa-	-sa-	-por-	a-	que	que	grê-	so-	-ma-
=12	=12	=12	=12	=12	=12	=12	=12	=12	=12	=12	=12
4f	vill[e]	roi	-ger,	-ger,	-tées:	-mant,	moi?	toi,	-ler,	-leil	-rin
*	*pline:4	*pline:6	*pline:8	*pline:10	*pline:12	*pline:14	*pline:16	*pline:18	*pline:20	*pline:22	*pline:24
8c	Sont	D'un	Son	Quell[e]s	Que	Pour	Est-	Mais	Ell[e]	À	Sur
=13	=13	=13	=13	=13	=13	=13	=13	=13	=13	=13	=13
4f	a-	cô-	mes-	nou-	votr[e]	lui	-el-	ell[e]	fait	mi-	le
8a	-len-	-té	-sa-	-vell[e]s	a-	a	-le	est	le	-nuit,	bord
=14	=14	=14	=14	=14	=14	=14	=14	=14	=14	=14	=14
4cc	-tour	qui	-ger	ya	-mant	un[e]	plus	plus	vent	dans	de
8a	qui	re-	de	à	vous	a-	char-	sa-	qui	sa	la
=15	=15	=15	=15	=15	=15	=15	=15	=15	=15	=15	=15
4.f	dan-	-gar-	Nan-	Nan-	man-	-man-	-man-	-van-	ven-	cham-	Man-
=16	=16	=16	=16	=16	=16	=16	=16	=16	=16	=16	=16
8g	sent.	-de.	-tes.	-tes?	-de...	-te.	-te?	-te.	-te.	-bre.	-che.
*	*refrain	*	*	*	*	*	*	*	*	*	*
*	*pline:R1	*	*	*	*	*	*	*	*	*	*
8f	Sur	.	.	.	.	.	.	.	.	.	.
8e	la	.	.	.	.	.	.	.	.	.	.
=17	=17	=17	=17	=17	=17	=17	=17	=17	=17	=17	=17
4f	feuil-	.	.	.	.	.	.	.	.	.	.
8g	-le	.	.	.	.	.	.	.	.	.	.
=18	=18	=18	=18	=18	=18	=18	=18	=18	=18	=18	=18
4.a	ron...	.	.	.	.	.	.	.	.	.	.
=19	=19	=19	=19	=19	=19	=19	=19	=19	=19	=19	=19
4a	don	.	.	.	.	.	.	.	.	.	.
8f	don	.	.	.	.	.	.	.	.	.	.
=20	=20	=20	=20	=20	=20	=20	=20	=20	=20	=20	=20
8g	don,	.	.	.	.	.	.	.	.	.	.
*	*pline:R2	*	*	*	*	*	*	*	*	*	*
8a	Sur	.	.	.	.	.	.	.	.	.	.
8b-	la	.	.	.	.	.	.	.	.	.	.
=21	=21	=21	=21	=21	=21	=21	=21	=21	=21	=21	=21
4cc	jo-	.	.	.	.	.	.	.	.	.	.
8dd	-li[e]	.	.	.	.	.	.	.	.	.	.
=22	=22	=22	=22	=22	=22	=22	=22	=22	=22	=22	=22
4cc	jo-	.	.	.	.	.	.	.	.	.	.
8a	-li[e]	.	.	.	.	.	.	.	.	.	.
=23	=23	=23	=23	=23	=23	=23	=23	=23	=23	=23	=23
4f	feuil-	.	.	.	.	.	.	.	.	.	.
8g	-le	.	.	.	.	.	.	.	.	.	.
=24	=24	=24	=24	=24	=24	=24	=24	=24	=24	=24	=24
(4f	ron-	.	.	.	.	.	.	.	.	.	.
8e)	.	.	.	.	.	.	.	.	.	.	.
=25	=25	=25	=25	=25	=25	=25	=25	=25	=25	=25	=25
4f	-de.	.	.	.	.	.	.	.	.	.	.
*	*Xrefrain	*	*	*	*	*	*	*	*	*	*
8r	.	.	.	.	.	.	.	.	.	.	.
=26	=26	=26	=26	=26	=26	=26	=26	=26	=26	=26	=26
8r	.	.	.	.	.	.	.	.	.	.	.
=||	=||	=||	=||	=||	=||	=||	=||	=||	=||	=||	=||
8r	.	.	.	.	.	.	.	.	.	.	.
==	==	==	==	==	==	==	==	==	==	==	==
*-	*-	*-	*-	*-	*-	*-	*-	*-	*-	*-	*-
!!!EED-1: Isaac Howie
!!!EEV-1: 2026/01/26
